X:1
T:Title
%%score { 1 | 2 }
L:1/8
Q:1/4=96
M:6/8
K:G
V:1 treble nm="Grand Piano"
V:2 treble 
V:1
 BAG BAG | [EA][EG]E [EG]3 | B>AG d2 B | [GB]3 [FA]3 | BAG BAG | [EA][EG]E [EG]3 | B>AG d2 B | %7
w: D.~B.~Towner * * * * *|||||||
[M:15/16] [FA]3 [B,G]3/2- [B,G]3 |[M:3/4] d>c Bd- d/c/B | [DAc]2 [DGc] [Fc]3 | %10
w: |||
 [Ac]>[GB] [FA][Ac] [GB][FA] | [DGB]>[DGB] [DGB] B3 | B>A GB- B/A/G | %13
w: |||
[M:7/8] [EA][CE][CE] [Ec]3 [EGc]/[EGc]/ |[M:3/4] [DGB]>[CDA] [B,DG] [Gd]2 [GB] | %15
w: ||
[M:15/16] [FA]3 [B,G]3/2- [B,G]3 |] %16
w: |
V:2
 [G,DG][G,CG][G,B,] [G,DG][G,CG][K:bass][G,B,] | [C,C][C,C][C,C] [C,C]3 | %2
 [G,D]>[G,C][G,B,][K:treble] [G,B,G]2 [G,DG] | [D,D]3 [D,D]3 | %4
 [G,DG][G,CG][G,B,] [G,DG][G,CG][K:bass][G,B,] | [C,C][C,C][C,C] [C,C]3 | %6
 [G,D]>[G,CD][G,B,D] [G,B,G]2 [G,DG] |[M:15/16][K:bass] [D,C]3 [G,,G,]3/2- [G,,G,]3 | %8
[M:3/4][K:treble] [G,B,G]>[G,EG] [G,DG][G,B,G]- [G,B,G]/[G,EG]/[G,DG] | D,F, A, [D,D]3 | %10
 [D,D]>[D,D] [D,D][D,D] [D,D][D,D] | G,,>B,, D,[K:treble] [G,DG]3 | %12
 [G,DG]>[G,CD] [G,B,D][G,DG]- [G,DG]/[K:bass][G,CD]/[G,B,D] | %13
[M:7/8] [C,C][C,G,][C,G,] [C,G,]3 C,/C,/ |[M:3/4] D,>D, D, [D,B,]2 [D,D] | %15
[M:15/16] [D,C]3 [G,,G,]3/2- [G,,G,]3 |] %16

